X:1
T:McGranahan, 87.87 D
T:McGranahan, 87.87 D
T:James McGranahan (1840-1907)
T:Public Domain Courtesy of the Cyber Hymnal™
C:James McGranahan (1840-1907)
Z:Public Domain
Z:Courtesy of the Cyber Hymnal™
%%score ( 1 2 ) ( 3 4 )
L:1/8
Q:1/4=115
M:4/4
K:C
V:1 treble 
V:2 treble 
V:3 bass 
V:4 bass 
V:1
 GG | c4- cGEA | G2 G4 [EG][Ec] | [GB]3 [GB] [FA]2 [FB]2 | [Ec]6 GG | c4- cGEA | G2 G4 [DG][GB] | %7
 [Gd]3 [GB] [^FA]2 [Fd]2 | [DG]8 | [DG]2 [DB]2 [Fd]2 [FG]2 | (Gc) ([Ec][Fd]) [Ge]2 [Ec]2 | %11
 [DG]2 [DB]2 [Fd]2 G2 | ([GA][FB]) ([Ec][Ad]) [^Ge]4 | [^Ge]3 [Gd] [Ac]3 [Ac] | %14
 [Ad]2 [Ae]2 [Af]>[Ae] [Af]>[Fd] | [Ec]3 [Fd] [Ec]2 [DB]2 | [Ec]6 |] %17
V:2
 GG | c4- cGEA | G2 G4 x2 | x8 | x6 GG | c4- cGEA | G2 G4 x2 | x8 | x8 | x8 | E2 x6 | x8 | x8 | %13
 x8 | x8 | x8 | x6 |] %17
V:3
 G,G, | C4- CG,E,A, | G,2 G,4 [G,C][G,C] | [G,D]3 [G,D] [G,D]2 [G,D]2 | [C,C]6 G,G, | C4- CG,E,A, | %6
 G,2 G,4 [G,B,][G,D] | [G,B,]3 [G,D] [D,D]2 [D,C]2 | [G,B,]8 | [G,B,]2 [G,B,]2 [G,B,]2 [G,B,]2 | %10
 (CG,) [C,G,]2 [C,C]2 [C,G,]2 | [G,B,]2 [G,B,]2 [G,B,]2 [G,B,]2 | (CD) ([A,C][F,A,]) [E,B,]4 | %13
 [E,B,]3 [E,E] [A,E]3 [G,E] | [F,D]2 [E,^C]2 [D,A,]>[^C,A,] [D,A,]>[F,A,] | %15
 [G,C]3 [F,A,] G,2 [G,,G,]2 | [C,G,]6 |] %17
V:4
 G,G, | C4- CG,E,A, | G,2 G,4 x2 | x8 | x6 G,G, | x5 G,E,A, | G,2 G,4 x2 | x8 | x8 | x8 | C,2 x6 | %11
 x8 | G,2 x6 | x8 | x8 | x4 G,2 x2 | x6 |] %17

